toggle-switch-outline.svg

<svg fill="currentColor" viewBox="0 0 24 24"><path d="M17 6H7c-3.31 0-6 2.69-6 6s2.69 6 6 6h10c3.31 0 6-2.69 6-6s-2.69-6-6-6m0 10H7c-2.21 0-4-1.79-4-4s1.79-4 4-4h10c2.21 0 4 1.79 4 4s-1.79 4-4 4m0-7c-1.66 0-3 1.34-3 3s1.34 3 3 3 3-1.34 3-3-1.34-3-3-3"/></svg>

<svg  viewBox="0 0 24 24" fill="currentColor"><path  d="M17 6H7C3.69 6 1 8.69 1 12S3.69 18 7 18H17C20.31 18 23 15.31 23 12S20.31 6 17 6M17 16H7C4.79 16 3 14.21 3 12S4.79 8 7 8H17C19.21 8 21 9.79 21 12S19.21 16 17 16M17 9C15.34 9 14 10.34 14 12S15.34 15 17 15 20 13.66 20 12 18.66 9 17 9Z"/></svg>
